X:1
T:Die Waldvögelein
T:Felix Mendelssohn Bartholdy
T:Die Waldvögelein
T:Op. 88,4
T:CPDL - Creative Commons Attribution Non Commercial 3.0
T:CPDL - Creative Commons Attribution Non Commercial 3.0
T:CPDL - Creative Commons Attribution Non Commercial 3.0
T:CPDL - Creative Commons Attribution Non Commercial 3.0
C:Felix Mendelssohn Bartholdy
Z:CPDL - Creative Commons Attribution Non Commercial 3.0
%%score [ 1 2 3 4 ]
L:1/8
Q:1/4=102
M:4/4
K:F
V:1 treble nm="S"
V:2 treble nm="A"
V:3 treble-8 nm="T"
V:4 bass nm="B"
V:1
"^Allegro assai"!f! c2 | ABcd cfaf | cABd (c4 | (f8) | f2) z2 z2 z!p! A | GAGA GdGA | %6
w: 1.~Kommt,|lasst uns geh'n spa- zie- * ren durch|den viel- grü- nen Wald,|_|* die|Vö- gel mu- si- zie- * ren, dass|
w: 2.~Wohl|dem, der frei kann sin- * gen, wie|du, du Volk der Luft,|_|* und|sei- ne Stim- me schwin- * gen zu|
w: 3.~Wohl|je- dem, der frei le- * bet wie|du, du leich- te Schar,|_|* in|Trost und Frie- den schwe- * bet und|
 GAGA G3!f! G | GG=Bd ce g2- | (g4 g2) z c | cceg (fa c2-) | (c4 c2) z!f! F | d2 d2 d2 d2 | %12
w: Berg und Tal er- schallt, die|Vö- gel mu- si- zie- * ren,|_ _ dass|Berg und Tal er- schallt, _ _|_ _ dass|Berg und Tal er-|
w: der, auf die er hofft, und|sei- ne Stim- me schwin- * gen|_ _ zu|der, auf die er hofft, _ _|_ _ zu|der, auf die er|
w: au- ßer al- ler Fahr, in|Trost und Frie- den schwe- * bet|_ _ und|au- ßer al- ler Fahr, _ _|_ _ und|au- ßer al- ler|
 !fermata!f4- ffdB | G3 d cF EB | A3!f! F d2 d2 | d2 d2 g4- | !fermata!g4 z!p! fed | c3 f cA GA | %18
w: schallt, * dass Berg und|Tal, und Tal _ er- *|schallt, dass Berg und|Tal er- schallt,|_ dass Berg und|Tal, und Tal _ er- *|
w: hofft, * zu der, auf|die, auf die _ er _|hofft, zu der, auf|die er hofft,|_ zu der, auf|die, auf die _ er _|
w: Fahr, * aus al- ler|Fahr, aus al- * ler _|Fahr, und au- ßer|al- ler Fahr,|_ aus al- ler|Fahr, aus al- * ler _|
 F2 z2 | z2!pp! E2 | F2 A2 c2 e2 | (f2 a2) c2 e2 | f2 c2 A3 G | !fermata!F6 |] %24
w: schallt,|die|Vö- gel mu- si-|zie- * ren, dass|Berg und Tal er-|schallt.|
w: hofft,|und|sei- ne Stim- me|schwin- * gen zu|der, auf die er|hofft.|
w: Fahr,|in|Trost und Frie- den|schwe- * bet und|au- ßer al- ler|Fahr.|
V:2
!f! A2 | FGAB Acfc | AFGB (A4 | (F8) | F2) z2 z2 z!p! F | FFFF F2 FF | FFFF F3!f! F | FFDF EG c2 | %8
 z4 z2 z _B | BBGB (A2 c2-) | (c4 c2) z!f! F | B2 B2 B2 B2 | !fermata!B4 z4 | z!p! FEE F2 C2 | %14
 F3!f! F F2 F2 | F2 F2 F4- | !fermata!F4 z4 | z!p! EFG F2 E2 | F3!pp! C | CDCD | CFCD CDCD | %21
 CFCD CD CD | C2 F2 F2 E2 | !fermata!F6 |] %24
V:3
 z2 | z8 | z4 z2!f! c2 | ABcd cfaf | cABd c3!p! c | =BcBc B2 Bc | =BcBc B4 | z4 z2 z!f! G | %8
w: ||1.~Kommt,|lasst uns geh'n spa- zie- * ren durch|den viel- grü- nen Wald! die|Vö- gel mu- si- zie- ren, dass|Berg und Tal er- schallt,|die|
w: ||2.~Wohl|dem, der frei kann sin- * gen, wie|du, du Volk der Luft, und|sei- ne Stim- me schwin- gen zu|der, auf die er hofft,|und|
w: ||3.~Wohl|je- dem, der frei le- * bet wie|du, du leich- te Schar, in|Trost und Frie- den schwe- bet und|au- ßer al- ler Fahr,|in|
 GG=Bd ce g2- | g2 z2 z2 z c | cceg f4- | f2 f2 f2 f2 | !fermata!d4 z4 | z!p! dcc c2 c2 | %14
w: Vö- gel mu- si- zie- * ren,|_ dass|Berg und Tal er- schallt,|_ und Tal er-|schallt,|dass Berg und Tal er-|
w: sei- ne Stim- me schwin- * gen|_ zu|der, auf die er hofft,|_ auf die er|hofft,|zu der, auf die er|
w: Trost und Frie- den schwe- * bet|_ und|au- ßer al- ler Fahr,|_ aus al- ler|Fahr,|und au- ßer al- ler|
 c3!f! c =B2 B2 | =B2 B2 B4- | !fermata!B4 z4 | z!p! ccd c2 B2 | A3!pp! A | BBBB | A2 AA BBBB | %21
w: schallt, dass Berg und|Tal er- schallt,|_|dass Berg und Tal er-|schallt, die|Vö- gel mu- si-|zie- ren, die Vö- gel mu- si-|
w: hofft, zu der, auf|die er hofft,|_|zu der, auf die er|hofft, und|sei- ne Stim- me|schwin- gen, und sei- ne Stim- me|
w: Fahr, und au- ßer|al- ler Fahr,|_|und au- ßer al- ler|Fahr, in|Trost und Frie- den|schwe- bet, in Trost und Frie- den|
 A2 AA B2 B2 | A2 c2 c2 B2 | !fermata!A6 |] %24
w: zie- ren, dass Berg und|Tal, und Tal er-|schallt.|
w: schwin- gen zu der, auf|die, auf die er|hofft.|
w: schwe- bet aus al- ler|Fahr, aus al- ler|Fahr.|
V:4
 z2 | z8 | z4 z2!f! A,2 | F,G,A,B, A,CFC | A,F,G,B, A,3!p! F, | D,D,D,D, D,2 D,D, | D,D,D,D, D,4 | %7
w: |||||||
w: |||||||
w: |||||||
 z4 z2 z!f! E, | F,F,D,F, E,G, C2- | C6 z A, | B,B,G,B, A,3!f! A, | B,2 B,2 B,2 B,2 | %12
w: |||* * * * * dass|Berg und Tal er-|
w: |||* * * * * zu|der, auf die er|
w: |||* * * * * und|au- ßer al- ler|
 !fermata!B,,4 z4 | z!p! B,B,B, A,2 G,2 | F,3!f! D, G,2 G,2 | G,2 G,2 [G,,G,]4- | %16
w: schallt,||||
w: hofft,||||
w: Fahr,||||
 !fermata![G,,G,]4 z4 | z!p! B,A,B, C2 C,2 | F,3!pp! F, | F,F,F,F, | F,2 F,F, F,F,F,F, | %21
w: |||||
w: |||||
w: |||||
 F,2 F,F, F,2 F,2 | F,2 A,2 C,2 C,2 | !fermata!F,6 |] %24
w: |||
w: |||
w: |||

